images/blogger.svg

<?xml version="1.0" encoding="UTF-8"?>
<svg width="19px" height="19px" viewBox="0 0 19 19" version="1.1" xmlns="http://www.w3.org/2000/svg" xmlns:xlink="http://www.w3.org/1999/xlink">
    <!-- Generator: sketchtool 50.2 (55047) - http://www.bohemiancoding.com/sketch -->
    <title>4587ECDE-FE44-43A1-9933-C8F7EBD0B464</title>
    <desc>Created with sketchtool.</desc>
    <defs></defs>
    <g id="Symbols" stroke="none" stroke-width="1" fill="none" fill-rule="evenodd">
        <g id="Footer" transform="translate(-1118.000000, -139.000000)" fill="#F57D00">
            <g id="Blogger" transform="translate(1118.000000, 139.000000)">
                <path d="M12.5625185,13.1360303 L5.45571429,13.1360303 C4.88631746,13.1360303 4.49546032,12.790054 4.49546032,12.2178546 C4.49546032,11.6452528 4.88631746,11.2994777 5.45571429,11.2994777 L12.5625185,11.2994777 C13.1319153,11.2994777 13.5227725,11.6452528 13.5227725,12.2178546 C13.5227725,12.790054 13.1319153,13.1360303 12.5625185,13.1360303 M5.45551323,4.96905713 L9.38137566,4.96905713 C9.91739683,4.96905713 10.3516825,5.33495878 10.3516825,5.87354669 C10.3516825,6.41233586 9.91739683,6.78769702 9.38137566,6.78769702 L5.45551323,6.78769702 C4.91949206,6.78769702 4.48520635,6.41233586 4.48520635,5.87354669 C4.48520635,5.33495878 4.91949206,4.96905713 5.45551323,4.96905713 M16.7332698,6.78387296 C16.6076085,6.78387296 16.2185608,6.79031348 15.6139788,6.79031348 C14.7777778,6.79031348 14.8692593,6.00779113 14.8692593,6.00779113 C14.8692593,2.73399781 12.2032275,0 8.98408466,0 L5.82867725,0 C2.60953439,0 0,2.65389393 0,5.92768725 L0,12.1774002 C0,15.4511935 2.60953439,18.1050874 5.82867725,18.1050874 L12.2100635,18.1050874 C15.4292063,18.1050874 18.0387407,15.4511935 18.0387407,12.1774002 C18.0387407,12.1774002 18.0952381,9.89564712 18.0952381,8.21386814 C18.0952381,7.39592297 17.4685397,6.78387296 16.7332698,6.78387296" id="Fill-64"></path>
            </g>
        </g>
    </g>
</svg>

<svg xmlns="http://www.w3.org/2000/svg" width="19" height="19"><title>4587ECDE-FE44-43A1-9933-C8F7EBD0B464</title><desc>Created with sketchtool.</desc><g fill="none"><g fill="#F57D00"><g><path d="M12.56 13.14h-7.1c-.57 0-.96-.35-.96-.92 0-.57.4-.92.96-.92h7.1c.57 0 .96.35.96.92 0 .57-.4.92-.96.92m-7.1-8.17h3.92c.54 0 .97.36.97.9s-.43.92-.97.92H5.46c-.54 0-.97-.4-.97-.93 0-.54.42-.9.96-.9m11.27 1.8c-.12 0-.5.02-1.12.02-.82 0-.73-.8-.73-.8 0-3.27-2.67-6-5.9-6H5.84C2.6 0 0 2.65 0 5.93v6.25c0 3.27 2.6 5.93 5.83 5.93h6.38c3.23 0 5.84-2.65 5.84-5.92 0 0 .06-2.28.06-3.97 0-.8-.63-1.42-1.37-1.42"/></g></g></g></svg>
